src/assets/images/reactions/men/small/fire.svg

<svg width="15" height="15" viewBox="0 0 15 15" fill="none" xmlns="http://www.w3.org/2000/svg">
<path d="M6.77208 14.9891C6.77208 14.9891 -2.50355 15.7693 3.55193 4.14143C3.55193 4.14143 3.76254 7.92248 4.59612 7.31771C5.97197 6.32189 3.57359 2.54275 8.79156 0C8.79156 0 8.06132 4.05709 10.939 6.90078C10.939 6.90078 10.6388 4.80946 12.8286 3.42931C12.8286 3.42931 11.4114 5.52063 12.9142 8.57422C13.6257 10.0205 15.1452 14.9891 6.77208 14.9891Z" fill="#F5581F"/>
<path d="M5.71357 7.34182C5.71357 7.34182 6.34637 7.9581 6.30701 8.45841C6.30701 8.45841 7.84918 6.61245 7.84918 4.08887C7.84918 4.08887 10.9335 8.72869 10.5379 12.1561C10.5379 12.1561 11.3291 11.8868 11.4079 11.1162C11.4079 11.1162 11.8429 14.9959 7.76946 14.9959C3.69606 14.9959 2.98451 12.1513 3.97359 10.7692C4.43909 10.1184 6.14856 9.61429 5.71357 7.34182Z" fill="#F98D25"/>
<path d="M8.19183 9.26343C8.19183 9.26343 10.8018 14.2617 7.90938 14.9317C5.64091 15.4569 4.98153 12.6304 6.67427 11.4621C8.36701 10.2938 8.19183 9.26343 8.19183 9.26343Z" fill="#FFF200"/>
</svg>

<svg xmlns="http://www.w3.org/2000/svg" width="15" height="15" fill="none">
  <path fill="#F5581F" d="M6.772 14.99s-9.276.78-3.22-10.849c0 0 .21 3.781 1.044 3.177C5.972 6.322 3.574 2.543 8.792 0c0 0-.73 4.057 2.147 6.9 0 0-.3-2.09 1.89-3.47 0 0-1.418 2.09.085 5.144.712 1.447 2.231 6.415-6.142 6.415Z"/>
  <path fill="#F98D25" d="M5.714 7.342s.632.616.593 1.116c0 0 1.542-1.846 1.542-4.37 0 0 3.085 4.64 2.689 8.068 0 0 .791-.27.87-1.04 0 0 .435 3.88-3.639 3.88-4.073 0-4.784-2.845-3.795-4.227.465-.65 2.175-1.155 1.74-3.427Z"/>
  <path fill="#FFF200" d="M8.192 9.263s2.61 4.999-.283 5.669c-2.268.525-2.927-2.302-1.235-3.47 1.693-1.168 1.518-2.199 1.518-2.199Z"/>
</svg>
